assets/img/icon-2.svg

<svg fill="none" height="71" viewBox="0 0 75 71" width="75" xmlns="http://www.w3.org/2000/svg"><g fill="#fff"><path d="m37.1484.146973c-13.6464 0-24.7485 11.102227-24.7485 24.748827 0 9.0943 4.8935 17.3327 12.8266 21.6926v6.3296h-.0052v5.0575h-.0072v7.6716h7.1516c.1482 2.5063 2.2332 4.4999 4.7756 4.4999 2.5425 0 4.6275-1.9937 4.7755-4.4999h7.147v-5.0577h.0073v-7.6714h-.0008v-6.3296c7.9332-4.3599 12.8267-12.5984 12.8267-21.6926 0-13.6466-11.1022-24.748827-24.7486-24.748827zm-9.3132 55.384927h18.6219v2.4437h-18.6219zm9.3061 12.0012c-1.2192 0-2.0138-.9321-2.1484-1.886h4.2984c-.1405 1.0626-1.0499 1.886-2.15 1.886zm9.3086-4.5h-18.6218v-2.4436h18.6218zm.7209-18.3967-.7144.3635v7.8463h-8.0057v-19.3143l7.7528-7.7532c.5104-.5104.5104-1.3378-.0002-1.8484-.5101-.5101-1.3378-.5103-1.8483.0002l-7.2113 7.2117-7.2113-7.2117c-.5103-.5103-1.3379-.5105-1.8483-.0001-.5105.5105-.5105 1.338-.0002 1.8483l7.7528 7.7532v19.3143h-7.9962v-7.8463l-.7144-.3635c-7.4711-3.801-12.1122-11.3653-12.1122-19.7406 0-12.2052 9.9295-22.13479 22.1345-22.13479 12.2051 0 22.1346 9.92959 22.1346 22.13479 0 8.3753-4.6411 15.9396-12.1122 19.7406z"/><path d="m44.0457 8.07129c-.7218 0-1.3069.5851-1.3069 1.30699 0 .72192.5851 1.30692 1.3069 1.30692 2.0559 0 6.8744 2.4697 6.8744 7.2591 0 .7219.5851 1.307 1.3069 1.307.7219 0 1.307-.5851 1.307-1.307 0-6.4822-6.1769-9.87301-9.4883-9.87301z"/><path d="m8.53976 27.3975c0-.7218-.5851-1.3069-1.30696-1.3069h-5.92585c-.721848 0-1.30695.5851-1.30695 1.3069 0 .7219.585102 1.307 1.30695 1.307h5.92585c.72186 0 1.30696-.5851 1.30696-1.307z"/><path d="m8.98808 10.3022c.25528.2553.5897.3829.92425.3829.33437 0 .66897-.1276.92407-.3827.5106-.51055.5106-1.33797.0002-1.84828l-4.18984-4.19005c-.51014-.51019-1.33781-.51035-1.84833-.00017-.51051.51052-.51051 1.33798-.00016 1.84833z"/><path d="m8.98867 44.4927-4.19023 4.1901c-.51052.5105-.51052 1.338-.00017 1.8485.25528.2553.58966.3829.92425.3829.33438 0 .66896-.1276.92404-.3829l4.19024-4.1901c.5105-.5105.5105-1.338.0002-1.8481-.5103-.5106-1.33798-.5106-1.84833-.0004z"/><path d="m72.9796 26.0906h-5.9256c-.7218 0-1.3069.5851-1.3069 1.3069 0 .7219.5851 1.307 1.3069 1.307h5.9256c.7219 0 1.307-.5851 1.307-1.307 0-.7218-.5851-1.3069-1.307-1.3069z"/><path d="m64.374 10.6852c.3344 0 .6689-.1276.9242-.3827l4.1901-4.19003c.5103-.51051.5103-1.33797 0-1.84848-.5105-.51019-1.338-.51019-1.8485 0l-4.1901 4.19001c-.5104.51056-.5104 1.33797 0 1.8485.2553.2551.5899.3827.9243.3827z"/><path d="m65.2979 44.4927c-.5101-.5102-1.3377-.5102-1.8483.0004-.5103.5101-.5103 1.3376.0002 1.8481l4.1902 4.1901c.2551.2553.5897.3829.9241.3829s.669-.1276.9242-.3829c.5103-.5105.5103-1.338-.0002-1.8485z"/></g></svg>

<svg width="75" height="71" viewBox="0 0 75 71" fill="none" xmlns="http://www.w3.org/2000/svg">
<path d="M37.1484 0.146973C23.502 0.146973 12.3999 11.2492 12.3999 24.8958C12.3999 33.9901 17.2934 42.2285 25.2265 46.5884V52.918H25.2213V57.9755H25.2141V65.6471H32.3657C32.5139 68.1534 34.5989 70.147 37.1413 70.147C39.6838 70.147 41.7688 68.1533 41.9168 65.6471H49.0638V60.5894H49.0711V52.918H49.0703V46.5884C57.0035 42.2285 61.897 33.99 61.897 24.8958C61.897 11.2492 50.7948 0.146973 37.1484 0.146973ZM27.8352 55.5319H46.4571V57.9756H27.8352V55.5319ZM37.1413 67.5331C35.9221 67.5331 35.1275 66.601 34.9929 65.6471H39.2913C39.1508 66.7097 38.2414 67.5331 37.1413 67.5331ZM46.4499 63.0331H27.8281V60.5895H46.4499V63.0331ZM47.1708 44.6364L46.4564 44.9999V52.8462H38.4507V33.5319L46.2035 25.7787C46.7139 25.2683 46.7139 24.4409 46.2033 23.9303C45.6932 23.4202 44.8655 23.42 44.355 23.9305L37.1437 31.1422L29.9324 23.9305C29.4221 23.4202 28.5945 23.42 28.0841 23.9304C27.5736 24.4409 27.5736 25.2684 28.0839 25.7787L35.8367 33.5319V52.8462H27.8405V44.9999L27.1261 44.6364C19.655 40.8354 15.0139 33.2711 15.0139 24.8958C15.0139 12.6906 24.9434 2.76101 37.1484 2.76101C49.3535 2.76101 59.283 12.6906 59.283 24.8958C59.283 33.2711 54.6419 40.8354 47.1708 44.6364Z" fill="white"/>
<path d="M44.0457 8.07129C43.3239 8.07129 42.7388 8.65639 42.7388 9.37828C42.7388 10.1002 43.3239 10.6852 44.0457 10.6852C46.1016 10.6852 50.9201 13.1549 50.9201 17.9443C50.9201 18.6662 51.5052 19.2513 52.227 19.2513C52.9489 19.2513 53.534 18.6662 53.534 17.9443C53.534 11.4621 47.3571 8.07129 44.0457 8.07129Z" fill="white"/>
<path d="M8.53976 27.3975C8.53976 26.6757 7.95466 26.0906 7.2328 26.0906H1.30695C0.585102 26.0906 0 26.6757 0 27.3975C0 28.1194 0.585102 28.7045 1.30695 28.7045H7.2328C7.95466 28.7045 8.53976 28.1194 8.53976 27.3975Z" fill="white"/>
<path d="M8.98808 10.3022C9.24336 10.5575 9.57778 10.6851 9.91233 10.6851C10.2467 10.6851 10.5813 10.5575 10.8364 10.3024C11.347 9.79185 11.347 8.96443 10.8366 8.45412L6.64676 4.26407C6.13662 3.75388 5.30895 3.75372 4.79843 4.2639C4.28792 4.77442 4.28792 5.60188 4.79827 6.11223L8.98808 10.3022Z" fill="white"/>
<path d="M8.98867 44.4927L4.79844 48.6828C4.28792 49.1933 4.28792 50.0208 4.79827 50.5313C5.05355 50.7866 5.38793 50.9142 5.72252 50.9142C6.0569 50.9142 6.39148 50.7866 6.64656 50.5313L10.8368 46.3412C11.3473 45.8307 11.3473 45.0032 10.837 44.4931C10.3267 43.9825 9.49902 43.9825 8.98867 44.4927Z" fill="white"/>
<path d="M72.9796 26.0906H67.054C66.3322 26.0906 65.7471 26.6757 65.7471 27.3975C65.7471 28.1194 66.3322 28.7045 67.054 28.7045H72.9796C73.7015 28.7045 74.2866 28.1194 74.2866 27.3975C74.2866 26.6757 73.7015 26.0906 72.9796 26.0906Z" fill="white"/>
<path d="M64.374 10.6852C64.7084 10.6852 65.0429 10.5576 65.2982 10.3025L69.4883 6.11247C69.9986 5.60196 69.9986 4.7745 69.4883 4.26399C68.9778 3.7538 68.1503 3.7538 67.6398 4.26399L63.4497 8.454C62.9393 8.96456 62.9393 9.79197 63.4497 10.3025C63.705 10.5576 64.0396 10.6852 64.374 10.6852Z" fill="white"/>
<path d="M65.2979 44.4927C64.7878 43.9825 63.9602 43.9825 63.4496 44.4931C62.9393 45.0032 62.9393 45.8307 63.4498 46.3412L67.64 50.5313C67.8951 50.7866 68.2297 50.9142 68.5641 50.9142C68.8985 50.9142 69.2331 50.7866 69.4883 50.5313C69.9986 50.0208 69.9986 49.1933 69.4881 48.6828L65.2979 44.4927Z" fill="white"/>
</svg>
